launcher/android/assets/skins/day/svg/other.svg

<svg enable-background="new 0 0 257.00 75.00" height="75" viewBox="0 0 257 75" width="257" xmlns="http://www.w3.org/2000/svg"><g stroke-width=".2"><path d="m10.7502 42.1671h16.9167v16.9166h-16.9167z" fill="#dadada"/><path d="m80.3335 20.1671h38.6667v38.6667h-38.6667z" fill="#dadada"/><path d="m130.667 13.8004h45v45h-45z" fill="#dadada"/><path d="m188.667 8.08376h62.4668v56.7111h-62.4668z" fill="#bebdbd"/><path d="m39.267 30.8004h28.4333v28.4333h-28.4333z" fill="#ced0d3"/></g><path d="m3.3645 5.16705h249.636v62.6667h-249.636z" fill="none" stroke="#ababab" stroke-width="6"/><path d="m235.42 25.8417c0 1.855-.28 3.4941-.84 4.9175-.56 1.4233-1.353 2.657-2.38 3.7012-1.021 1.0442-2.249 1.9804-3.684 2.8088-1.435.8283-3.053 1.5808-4.856 2.2575v6.2737h-9.52v-9.275c1.342-.3442 2.557-.6985 3.644-1.0631 1.088-.3646 2.227-.9552 3.417-1.7719 1.12-.7292 1.997-1.575 2.63-2.5375s.949-2.0533.949-3.2725c0-1.8141-.608-3.1077-1.824-3.8806-1.217-.7729-2.927-1.1594-5.132-1.1594-1.359 0-2.891.2611-4.594.7831-1.703.5221-3.264 1.1944-4.681 2.0169h-1.129v-8.3037c1.19-.49 3.022-1.0019 5.495-1.5357 2.473-.5337 4.982-.8006 7.525-.8006 4.597 0 8.243 1.0004 10.938 3.0013 2.695 2.0008 4.042 4.6141 4.042 7.84zm-10.64 31.1587h-11.2v-7.28h11.2z" fill="#861d23" stroke-linejoin="round" stroke-width=".2"/></svg>

﻿<?xml version="1.0" encoding="utf-8"?>
<!DOCTYPE svg PUBLIC "-//W3C//DTD SVG 1.1//EN" "http://www.w3.org/Graphics/SVG/1.1/DTD/svg11.dtd">
<svg xmlns="http://www.w3.org/2000/svg" xmlns:xlink="http://www.w3.org/1999/xlink" version="1.1" baseProfile="full" width="257" height="75" viewBox="0 0 257.00 75.00" enable-background="new 0 0 257.00 75.00" xml:space="preserve">
	<g>
		<rect x="10.7502" y="42.1671" fill="#DADADA" fill-opacity="1" stroke-width="0.2" stroke-linejoin="miter" width="16.9167" height="16.9166"/>
		<rect x="80.3335" y="20.1671" fill="#DADADA" fill-opacity="1" stroke-width="0.2" stroke-linejoin="miter" width="38.6667" height="38.6667"/>
		<rect x="130.667" y="13.8004" fill="#DADADA" fill-opacity="1" stroke-width="0.2" stroke-linejoin="miter" width="45" height="45"/>
		<rect x="188.667" y="8.08376" fill="#BEBDBD" fill-opacity="1" stroke-width="0.2" stroke-linejoin="miter" width="62.4668" height="56.7111"/>
		<rect x="39.267" y="30.8004" fill="#CED0D3" fill-opacity="1" stroke-width="0.2" stroke-linejoin="miter" width="28.4333" height="28.4333"/>
		<rect x="3.3645" y="5.16705" fill="none" stroke-width="6" stroke-linejoin="miter" stroke="#ABABAB" stroke-opacity="1" width="249.636" height="62.6667"/>
		<g>
			<path fill="#861D23" fill-opacity="1" stroke-width="0.2" stroke-linejoin="round" d="M 235.42,25.8417C 235.42,27.6967 235.14,29.3358 234.58,30.7592C 234.02,32.1825 233.227,33.4162 232.2,34.4604C 231.179,35.5046 229.951,36.4408 228.516,37.2692C 227.081,38.0975 225.463,38.85 223.66,39.5267L 223.66,45.8004L 214.14,45.8004L 214.14,36.5254C 215.482,36.1812 216.697,35.8269 217.784,35.4623C 218.872,35.0977 220.011,34.5071 221.201,33.6904C 222.321,32.9612 223.198,32.1154 223.831,31.1529C 224.464,30.1904 224.78,29.0996 224.78,27.8804C 224.78,26.0663 224.172,24.7727 222.956,23.9998C 221.739,23.2269 220.029,22.8404 217.824,22.8404C 216.465,22.8404 214.933,23.1015 213.23,23.6235C 211.527,24.1456 209.966,24.8179 208.549,25.6404L 207.42,25.6404L 207.42,17.3367C 208.61,16.8467 210.442,16.3348 212.915,15.801C 215.388,15.2673 217.897,15.0004 220.44,15.0004C 225.037,15.0004 228.683,16.0008 231.378,18.0017C 234.073,20.0025 235.42,22.6158 235.42,25.8417 Z M 224.78,57.0004L 213.58,57.0004L 213.58,49.7204L 224.78,49.7204L 224.78,57.0004 Z "/>
		</g>
	</g>
</svg>
